X: 1
T: Captain Morgan
M: 6/8
L: 1/8
R: jig
K: Gmaj
|:A>AA dAA|cAA B2A|GFG ABc|BAG A>cB |
A>Bc dAA|cAA B2A |GFG ABc|B2A G3:|
K: D
|:g3 f3|edc def|gag fga |edc d2e|
g3 f3|edc def|f2a g2f|1 edc def :|2 edc dcB |
